; generated by MaketPO 1.1.5 on 2023-11-29 at 12:51:51 UTC

; 

; external perimeters extrusion width = 0.11mm
; perimeters extrusion width = 0.11mm
; infill extrusion width = 0.11mm
; solid infill extrusion width = 0.11mm
; top infill extrusion width = 0.10mm
; first layer extrusion width = 0.06mm

M107
M104 S50 ; set temperature
;TYPE:Custom
G28 ; home all axes
G1 Z5 F5000 ; lift nozzle
M109 S50 ; set temperature and wait for it to be reached
G21 ; set units to millimeters
G90 ; use absolute coordinates
M82 ; use absolute distances for extrusion
G92 E0
; Filament gcode
;LAYER_CHANGE
;Z:0.66
;HEIGHT:0.03
G1 Z0.660 F6018.000
G81 START
G1 X-2.464 Y-9.196
;TYPE:Perimeter
G1 X9.196 Y-2.464 E6.59094
G1 X2.464 Y9.196 E6.59700
G1 X-9.196 Y2.464 E6.60307
G1 X-2.471 Y-9.183 E6.60912
G1 X-2.503 Y-9.340
G1 X9.340 Y-2.503 E6.61527
G1 X2.503 Y9.340 E6.62143
G1 X-9.340 Y2.503 E6.62759
G1 X-2.510 Y-9.327 E6.63374
G1 X-2.542 Y-9.485
;TYPE:External perimeter
G1 X9.485 Y-2.542 E6.63999
G1 X2.542 Y9.485 E6.64624
G1 X-9.485 Y2.542 E6.65249
G1 X-2.549 Y-9.472 E6.65873
G1 X-2.471 Y-9.415
G1 X8.960 Y-2.508
;TYPE:Internal infill
G1 X9.087 Y-2.435 E6.65880
G1 X8.987 Y-2.262 E6.65889
G1 X8.443 Y-2.807 E6.65924
G1 X8.113 Y-2.997 E6.65941
G1 X-8.524 Y1.461 E6.66716
G1 X-8.715 Y1.791 E6.66733
G1 X-8.914 Y2.534 E6.66768
G1 X-9.087 Y2.435 E6.66777
G1 X-8.987 Y2.262 E6.66786
G1 X-8.443 Y2.807 E6.66821
G1 X-8.113 Y2.997 E6.66838
G1 X8.524 Y-1.461 E6.67613
G1 X8.715 Y-1.791 E6.67630
G1 X8.914 Y-2.534 E6.67665
G1 X8.727 Y-2.643 E6.67675
G1 X7.846 Y-0.285
G1 X8.164 Y-0.836 E6.67703
G1 X3.120 Y-5.880 E6.68024
G1 X3.209 Y-5.829 E6.68029
G1 X-0.356 Y7.476 E6.68649
G1 X-0.319 Y7.497 E6.68651
G1 X4.025 Y6.333 E6.68853
G1 X4.046 Y6.296 E6.68855
G1 X-5.693 Y-3.443 E6.69475
G1 X-5.642 Y-3.533 E6.69480
G1 X-7.488 Y3.358 E6.69801
G1 X-6.937 Y3.676 E6.69830
G1 X-2.620 Y-8.766
G1 X-2.568 Y-8.856 E6.69834
G1 X-6.062 Y4.182 E6.70442
G1 X-6.164 Y4.122 E6.70447
G1 X7.399 Y0.488 E6.71079
G1 X7.340 Y0.591 E6.71085
G1 X-2.204 Y-8.954 E6.71692
G1 X-2.435 Y-9.087 E6.71704
G1 X-2.542 Y-8.902 E6.71714
G1 X-3.196 Y-7.768
G1 X-2.900 Y-8.282 E6.71741
G1 X-1.630 Y-8.622 E6.71800
G1 X-1.070 Y-8.299 E6.71829
G1 X-4.635 Y5.005 E6.72449
G1 X-4.216 Y5.247 E6.72471
G1 X6.275 Y2.436 E6.72959
G1 X6.517 Y2.017 E6.72981
G1 X-3.223 Y-7.722 E6.73601
G1 X-3.541 Y-7.171 E6.73630
G1 X-7.846 Y0.285
G1 X-8.164 Y0.836 E6.73659
G1 X-3.120 Y5.880 E6.73980
G1 X-3.209 Y5.829 E6.73984
G1 X0.356 Y-7.476 E6.74604
G1 X0.319 Y-7.497 E6.74606
G1 X-4.025 Y-6.333 E6.74809
G1 X-4.046 Y-6.296 E6.74811
G1 X5.693 Y3.443 E6.75431
G1 X5.642 Y3.533 E6.75435
G1 X7.488 Y-3.358 E6.75756
G1 X6.937 Y-3.676 E6.75785
G1 X4.551 Y5.421
G1 X4.870 Y4.870 E6.75814
G1 X-4.870 Y-4.870 E6.76434
G1 X-5.150 Y-4.385 E6.76459
G1 X2.267 Y-6.372 E6.76804
G1 X1.782 Y-6.652 E6.76830
G1 X-1.782 Y6.652 E6.77450
G1 X-2.267 Y6.372 E6.77475
G1 X5.150 Y4.385 E6.77820
G1 X5.468 Y3.834 E6.77849
G1 X0.519 Y7.981
G1 X1.070 Y8.299 E6.77878
G1 X4.635 Y-5.005 E6.78498
G1 X4.216 Y-5.247 E6.78520
G1 X-6.275 Y-2.436 E6.79008
G1 X-6.517 Y-2.017 E6.79030
G1 X3.223 Y7.722 E6.79650
G1 X2.900 Y8.282 E6.79679
G1 X1.630 Y8.622 E6.79738
G1 X1.116 Y8.326 E6.79765
G1 X2.620 Y8.766
G1 X2.568 Y8.856 E6.79770
G1 X6.062 Y-4.182 E6.80377
G1 X6.164 Y-4.122 E6.80383
G1 X-7.399 Y-0.488 E6.81015
G1 X-7.340 Y-0.590 E6.81020
G1 X2.204 Y8.954 E6.81628
G1 X2.435 Y9.087 E6.81640
G1 X2.542 Y8.902 E6.81649
G81 STOP
G4 P500