; generated by MaketPO 1.1.5 on 2023-11-29 at 12:51:51 UTC

; 

; external perimeters extrusion width = 0.11mm
; perimeters extrusion width = 0.11mm
; infill extrusion width = 0.11mm
; solid infill extrusion width = 0.11mm
; top infill extrusion width = 0.10mm
; first layer extrusion width = 0.06mm

M107
M104 S50 ; set temperature
;TYPE:Custom
G28 ; home all axes
G1 Z5 F5000 ; lift nozzle
M109 S50 ; set temperature and wait for it to be reached
G21 ; set units to millimeters
G90 ; use absolute coordinates
M82 ; use absolute distances for extrusion
G92 E0
; Filament gcode
;LAYER_CHANGE
;Z:0.03
;HEIGHT:0.03
G1 Z0.030 F6018.000
G81 START
G1 X-2.439 Y-9.102
;TYPE:Perimeter
;WIDTH:0.06
G1 X9.102 Y-2.439 E0.00303
G1 X2.439 Y9.102 E0.00606
G1 X-9.102 Y2.439 E0.00909
G1 X-2.446 Y-9.089 E0.01211
G92 E0
G1 X-2.458 Y-9.175
G1 X9.175 Y-2.458 E0.00305
G1 X2.458 Y9.175 E0.00611
G1 X-9.175 Y2.458 E0.00916
G1 X-2.466 Y-9.162 E0.01221
G92 E0
G1 X-2.478 Y-9.248
;TYPE:External perimeter
G1 X9.248 Y-2.478 E0.00308
G1 X2.478 Y9.248 E0.00616
G1 X-9.248 Y2.478 E0.00923
G1 X-2.485 Y-9.235 E0.01231
G1 X-2.407 Y-9.177
G92 E0
G1 X9.040 Y-2.364
;TYPE:Solid infill
G1 X8.887 Y-2.516 E0.00005
G1 X8.708 Y-2.620 E0.00010
G1 X8.994 Y-2.333 E0.00019
G1 X8.967 Y-2.285 E0.00020
G1 X8.529 Y-2.723 E0.00034
G1 X8.350 Y-2.827 E0.00039
G1 X8.939 Y-2.237 E0.00058
G1 X8.911 Y-2.189 E0.00059
G1 X8.170 Y-2.930 E0.00083
G1 X7.991 Y-3.034 E0.00088
G1 X8.883 Y-2.141 E0.00116
G1 X8.856 Y-2.093 E0.00118
G1 X7.812 Y-3.137 E0.00151
G1 X7.633 Y-3.241 E0.00156
G1 X8.828 Y-2.045 E0.00194
G1 X8.800 Y-1.997 E0.00195
G1 X7.453 Y-3.344 E0.00239
G1 X7.274 Y-3.448 E0.00243
G1 X8.773 Y-1.949 E0.00292
G1 X8.745 Y-1.901 E0.00293
G1 X7.095 Y-3.551 E0.00346
G1 X6.915 Y-3.655 E0.00351
G1 X8.717 Y-1.853 E0.00409
G1 X8.689 Y-1.805 E0.00410
G1 X6.736 Y-3.758 E0.00473
G1 X6.557 Y-3.862 E0.00477
G1 X8.662 Y-1.757 E0.00545
G1 X8.634 Y-1.709 E0.00546
G1 X6.378 Y-3.965 E0.00619
G1 X6.198 Y-4.069 E0.00624
G1 X8.606 Y-1.661 E0.00701
G1 X8.578 Y-1.613 E0.00702
G1 X6.019 Y-4.172 E0.00784
G1 X5.840 Y-4.276 E0.00789
G1 X8.551 Y-1.565 E0.00876
G1 X8.523 Y-1.517 E0.00878
G1 X5.661 Y-4.379 E0.00970
G1 X5.481 Y-4.483 E0.00974
G1 X8.495 Y-1.469 E0.01071
G1 X8.467 Y-1.421 E0.01072
G1 X5.302 Y-4.586 E0.01174
G1 X5.123 Y-4.690 E0.01179
G1 X8.440 Y-1.373 E0.01286
G1 X8.412 Y-1.325 E0.01287
G1 X4.943 Y-4.793 E0.01398
G1 X4.764 Y-4.897 E0.01403
G1 X8.384 Y-1.277 E0.01519
G1 X8.357 Y-1.229 E0.01521
G1 X4.585 Y-5.000 E0.01642
G1 X4.406 Y-5.104 E0.01647
G1 X8.329 Y-1.180 E0.01773
G1 X8.301 Y-1.132 E0.01774
G1 X4.226 Y-5.207 E0.01905
G1 X4.047 Y-5.311 E0.01910
G1 X8.273 Y-1.084 E0.02046
G1 X8.246 Y-1.036 E0.02047
G1 X3.868 Y-5.414 E0.02188
G1 X3.688 Y-5.518 E0.02192
G1 X8.218 Y-0.988 E0.02338
G1 X8.190 Y-0.940 E0.02339
G1 X3.509 Y-5.621 E0.02490
G1 X3.330 Y-5.725 E0.02494
G1 X8.162 Y-0.892 E0.02650
G1 X8.135 Y-0.844 E0.02651
G1 X3.151 Y-5.828 E0.02811
G1 X2.971 Y-5.932 E0.02816
G1 X8.107 Y-0.796 E0.02981
G1 X8.079 Y-0.748 E0.02982
G1 X2.792 Y-6.035 E0.03152
G1 X2.613 Y-6.139 E0.03157
G1 X8.051 Y-0.700 E0.03332
G1 X8.024 Y-0.652 E0.03333
G1 X2.434 Y-6.242 E0.03513
G1 X2.254 Y-6.346 E0.03518
G1 X7.996 Y-0.604 E0.03702
G1 X7.968 Y-0.556 E0.03703
G1 X2.075 Y-6.449 E0.03893
G1 X1.896 Y-6.553 E0.03898
G1 X7.941 Y-0.508 E0.04092
G1 X7.913 Y-0.460 E0.04093
G1 X1.716 Y-6.656 E0.04292
G1 X1.537 Y-6.760 E0.04297
G1 X7.885 Y-0.412 E0.04501
G1 X7.857 Y-0.364 E0.04502
G1 X1.358 Y-6.863 E0.04711
G1 X1.179 Y-6.967 E0.04716
G1 X7.830 Y-0.316 E0.04930
G1 X7.802 Y-0.268 E0.04931
G1 X0.999 Y-7.070 E0.05150
G1 X0.820 Y-7.174 E0.05154
G1 X7.774 Y-0.220 E0.05378
G1 X7.746 Y-0.172 E0.05379
G1 X0.641 Y-7.277 E0.05608
G1 X0.462 Y-7.381 E0.05612
G1 X7.719 Y-0.124 E0.05846
G1 X7.691 Y-0.076 E0.05847
G1 X0.282 Y-7.484 E0.06085
G1 X0.103 Y-7.588 E0.06090
G1 X7.663 Y-0.028 E0.06333
G1 X7.635 Y0.020 E0.06334
G1 X-0.076 Y-7.691 E0.06582
G1 X-0.256 Y-7.795 E0.06587
G1 X7.608 Y0.068 E0.06840
G1 X7.580 Y0.117 E0.06841
G1 X-0.435 Y-7.898 E0.07099
G1 X-0.614 Y-8.002 E0.07103
G1 X7.552 Y0.165 E0.07366
G1 X7.525 Y0.213 E0.07367
G1 X-0.793 Y-8.105 E0.07634
G1 X-0.973 Y-8.209 E0.07639
G1 X7.497 Y0.261 E0.07911
G1 X7.469 Y0.309 E0.07913
G1 X-1.152 Y-8.312 E0.08190
G1 X-1.331 Y-8.416 E0.08195
G1 X7.441 Y0.357 E0.08477
G1 X7.414 Y0.405 E0.08478
G1 X-1.511 Y-8.519 E0.08765
G1 X-1.690 Y-8.623 E0.08769
G1 X7.386 Y0.453 E0.09061
G1 X7.358 Y0.501 E0.09062
G1 X-1.869 Y-8.726 E0.09359
G1 X-2.048 Y-8.830 E0.09364
G1 X7.330 Y0.549 E0.09665
G1 X7.303 Y0.597 E0.09667
G1 X-2.228 Y-8.933 E0.09973
G1 X-2.407 Y-9.037 E0.09978
G1 X7.275 Y0.645 E0.10289
G1 X7.247 Y0.693 E0.10290
G1 X-2.449 Y-9.003 E0.10602
G1 X-2.477 Y-8.955 E0.10603
G1 X7.219 Y0.741 E0.10915
G1 X7.192 Y0.789 E0.10916
G1 X-2.505 Y-8.907 E0.11228
G1 X-2.532 Y-8.859 E0.11229
G1 X7.164 Y0.837 E0.11541
G1 X7.136 Y0.885 E0.11542
G1 X-2.560 Y-8.811 E0.11854
G1 X-2.588 Y-8.763 E0.11855
G1 X7.109 Y0.933 E0.12167
G1 X7.081 Y0.981 E0.12168
G1 X-2.616 Y-8.715 E0.12480
G1 X-2.643 Y-8.667 E0.12481
G1 X7.053 Y1.029 E0.12793
G1 X7.025 Y1.077 E0.12794
G1 X-2.671 Y-8.619 E0.13106
G1 X-2.699 Y-8.571 E0.13107
G1 X6.998 Y1.125 E0.13419
G1 X6.970 Y1.173 E0.13420
G1 X-2.726 Y-8.523 E0.13732
G1 X-2.754 Y-8.475 E0.13733
G1 X6.942 Y1.221 E0.14045
G1 X6.914 Y1.269 E0.14046
G1 X-2.782 Y-8.427 E0.14358
G1 X-2.810 Y-8.379 E0.14359
G1 X6.887 Y1.317 E0.14671
G1 X6.859 Y1.365 E0.14672
G1 X-2.837 Y-8.331 E0.14984
G1 X-2.865 Y-8.283 E0.14985
G1 X6.831 Y1.414 E0.15297
G1 X6.803 Y1.462 E0.15298
G1 X-2.893 Y-8.235 E0.15610
G1 X-2.921 Y-8.187 E0.15611
G1 X6.776 Y1.510 E0.15923
G1 X6.748 Y1.558 E0.15924
G1 X-2.948 Y-8.139 E0.16236
G1 X-2.976 Y-8.091 E0.16237
G1 X6.720 Y1.606 E0.16549
G1 X6.692 Y1.654 E0.16550
G1 X-3.004 Y-8.043 E0.16862
G1 X-3.032 Y-7.995 E0.16863
G1 X6.665 Y1.702 E0.17175
G1 X6.637 Y1.750 E0.17176
G1 X-3.059 Y-7.947 E0.17488
G1 X-3.087 Y-7.899 E0.17489
G1 X6.609 Y1.798 E0.17801
G1 X6.582 Y1.846 E0.17802
G1 X-3.115 Y-7.850 E0.18114
G1 X-3.143 Y-7.802 E0.18115
G1 X6.554 Y1.894 E0.18427
G1 X6.526 Y1.942 E0.18428
G1 X-3.170 Y-7.754 E0.18739
G1 X-3.198 Y-7.706 E0.18741
G1 X6.498 Y1.990 E0.19052
G1 X6.471 Y2.038 E0.19054
G1 X-3.226 Y-7.658 E0.19365
G1 X-3.253 Y-7.610 E0.19367
G1 X6.443 Y2.086 E0.19678
G1 X6.415 Y2.134 E0.19680
G1 X-3.281 Y-7.562 E0.19991
G1 X-3.309 Y-7.514 E0.19993
G1 X6.387 Y2.182 E0.20304
G1 X6.360 Y2.230 E0.20306
G1 X-3.337 Y-7.466 E0.20617
G1 X-3.364 Y-7.418 E0.20619
G1 X6.332 Y2.278 E0.20930
G1 X6.304 Y2.326 E0.20932
G1 X-3.392 Y-7.370 E0.21243
G1 X-3.420 Y-7.322 E0.21245
G1 X6.276 Y2.374 E0.21556
G1 X6.249 Y2.422 E0.21558
G1 X-3.448 Y-7.274 E0.21869
G1 X-3.475 Y-7.226 E0.21871
G1 X6.221 Y2.470 E0.22182
G1 X6.193 Y2.518 E0.22184
G1 X-3.503 Y-7.178 E0.22495
G1 X-3.531 Y-7.130 E0.22497
G1 X6.166 Y2.566 E0.22808
G1 X6.138 Y2.614 E0.22810
G1 X-3.559 Y-7.082 E0.23121
G1 X-3.586 Y-7.034 E0.23123
G1 X6.110 Y2.662 E0.23434
G1 X6.082 Y2.711 E0.23435
G1 X-3.614 Y-6.986 E0.23747
G1 X-3.642 Y-6.938 E0.23748
G1 X6.055 Y2.759 E0.24060
G1 X6.027 Y2.807 E0.24061
G1 X-3.669 Y-6.890 E0.24373
G1 X-3.697 Y-6.842 E0.24374
G1 X5.999 Y2.855 E0.24686
G1 X5.971 Y2.903 E0.24687
G1 X-3.725 Y-6.794 E0.24999
G1 X-3.753 Y-6.746 E0.25000
G1 X5.944 Y2.951 E0.25312
G1 X5.916 Y2.999 E0.25313
G1 X-3.780 Y-6.698 E0.25625
G1 X-3.808 Y-6.650 E0.25626
G1 X5.888 Y3.047 E0.25938
G1 X5.860 Y3.095 E0.25939
G1 X-3.836 Y-6.602 E0.26251
G1 X-3.864 Y-6.553 E0.26252
G1 X5.833 Y3.143 E0.26564
G1 X5.805 Y3.191 E0.26565
G1 X-3.891 Y-6.505 E0.26877
G1 X-3.919 Y-6.457 E0.26878
G1 X5.777 Y3.239 E0.27190
G1 X5.750 Y3.287 E0.27191
G1 X-3.947 Y-6.409 E0.27503
G1 X-3.975 Y-6.361 E0.27504
G1 X5.722 Y3.335 E0.27816
G1 X5.694 Y3.383 E0.27817
G1 X-4.002 Y-6.313 E0.28129
G1 X-4.030 Y-6.265 E0.28130
G1 X5.666 Y3.431 E0.28442
G1 X5.639 Y3.479 E0.28443
G1 X-4.058 Y-6.217 E0.28755
G1 X-4.085 Y-6.169 E0.28756
G1 X5.611 Y3.527 E0.29068
G1 X5.583 Y3.575 E0.29069
G1 X-4.113 Y-6.121 E0.29381
G1 X-4.141 Y-6.073 E0.29382
G1 X5.555 Y3.623 E0.29694
G1 X5.528 Y3.671 E0.29695
G1 X-4.169 Y-6.025 E0.30007
G1 X-4.196 Y-5.977 E0.30008
G1 X5.500 Y3.719 E0.30320
G1 X5.472 Y3.767 E0.30321
G1 X-4.224 Y-5.929 E0.30633
G1 X-4.252 Y-5.881 E0.30634
G1 X5.444 Y3.815 E0.30946
G1 X5.417 Y3.863 E0.30947
G1 X-4.280 Y-5.833 E0.31259
G1 X-4.307 Y-5.785 E0.31260
G1 X5.389 Y3.911 E0.31572
G1 X5.361 Y3.959 E0.31573
G1 X-4.335 Y-5.737 E0.31885
G1 X-4.363 Y-5.689 E0.31886
G1 X5.334 Y4.007 E0.32198
G1 X5.306 Y4.056 E0.32199
G1 X-4.391 Y-5.641 E0.32511
G1 X-4.418 Y-5.593 E0.32512
G1 X5.278 Y4.104 E0.32824
G1 X5.250 Y4.152 E0.32825
G1 X-4.446 Y-5.545 E0.33137
G1 X-4.474 Y-5.497 E0.33138
G1 X5.223 Y4.200 E0.33450
G1 X5.195 Y4.248 E0.33451
G1 X-4.501 Y-5.449 E0.33763
G1 X-4.529 Y-5.401 E0.33764
G1 X5.167 Y4.296 E0.34076
G1 X5.139 Y4.344 E0.34077
G1 X-4.557 Y-5.353 E0.34389
G1 X-4.585 Y-5.305 E0.34390
G1 X5.112 Y4.392 E0.34702
G1 X5.084 Y4.440 E0.34703
G1 X-4.612 Y-5.257 E0.35015
G1 X-4.640 Y-5.208 E0.35016
G1 X5.056 Y4.488 E0.35328
G1 X5.028 Y4.536 E0.35329
G1 X-4.668 Y-5.160 E0.35641
G1 X-4.696 Y-5.112 E0.35642
G1 X5.001 Y4.584 E0.35954
G1 X4.973 Y4.632 E0.35955
G1 X-4.723 Y-5.064 E0.36267
G1 X-4.751 Y-5.016 E0.36268
G1 X4.945 Y4.680 E0.36580
G1 X4.918 Y4.728 E0.36581
G1 X-4.779 Y-4.968 E0.36893
G1 X-4.807 Y-4.920 E0.36894
G1 X4.890 Y4.776 E0.37205
G1 X4.862 Y4.824 E0.37207
G1 X-4.834 Y-4.872 E0.37518
G1 X-4.862 Y-4.824 E0.37520
G1 X4.834 Y4.872 E0.37831
G1 X4.807 Y4.920 E0.37833
G1 X-4.890 Y-4.776 E0.38144
G1 X-4.917 Y-4.728 E0.38146
G1 X4.779 Y4.968 E0.38457
G1 X4.751 Y5.016 E0.38459
G1 X-4.945 Y-4.680 E0.38770
G1 X-4.973 Y-4.632 E0.38772
G1 X4.723 Y5.064 E0.39083
G1 X4.696 Y5.112 E0.39085
G1 X-5.001 Y-4.584 E0.39396
G1 X-5.028 Y-4.536 E0.39398
G1 X4.668 Y5.160 E0.39709
G1 X4.640 Y5.208 E0.39711
G1 X-5.056 Y-4.488 E0.40022
G1 X-5.084 Y-4.440 E0.40024
G1 X4.612 Y5.256 E0.40335
G1 X4.585 Y5.304 E0.40337
G1 X-5.112 Y-4.392 E0.40648
G1 X-5.139 Y-4.344 E0.40650
G1 X4.557 Y5.353 E0.40961
G1 X4.529 Y5.401 E0.40963
G1 X-5.167 Y-4.296 E0.41274
G1 X-5.195 Y-4.248 E0.41276
G1 X4.502 Y5.449 E0.41587
G1 X4.474 Y5.497 E0.41589
G1 X-5.223 Y-4.200 E0.41900
G1 X-5.250 Y-4.152 E0.41901
G1 X4.446 Y5.545 E0.42213
G1 X4.418 Y5.593 E0.42214
G1 X-5.278 Y-4.104 E0.42526
G1 X-5.306 Y-4.056 E0.42527
G1 X4.391 Y5.641 E0.42839
G1 X4.363 Y5.689 E0.42840
G1 X-5.333 Y-4.008 E0.43152
G1 X-5.361 Y-3.960 E0.43153
G1 X4.335 Y5.737 E0.43465
G1 X4.307 Y5.785 E0.43466
G1 X-5.389 Y-3.911 E0.43778
G1 X-5.417 Y-3.863 E0.43779
G1 X4.280 Y5.833 E0.44091
G1 X4.252 Y5.881 E0.44092
G1 X-5.444 Y-3.815 E0.44404
G1 X-5.472 Y-3.767 E0.44405
G1 X4.224 Y5.929 E0.44717
G1 X4.196 Y5.977 E0.44718
G1 X-5.500 Y-3.719 E0.45030
G1 X-5.528 Y-3.671 E0.45031
G1 X4.169 Y6.025 E0.45343
G1 X4.141 Y6.073 E0.45344
G1 X-5.555 Y-3.623 E0.45656
G1 X-5.583 Y-3.575 E0.45657
G1 X4.113 Y6.121 E0.45969
G1 X4.085 Y6.169 E0.45970
G1 X-5.611 Y-3.527 E0.46282
G1 X-5.639 Y-3.479 E0.46283
G1 X4.058 Y6.217 E0.46595
G1 X4.030 Y6.265 E0.46596
G1 X-5.666 Y-3.431 E0.46908
G1 X-5.694 Y-3.383 E0.46909
G1 X4.002 Y6.313 E0.47221
G1 X3.975 Y6.361 E0.47222
G1 X-5.722 Y-3.335 E0.47534
G1 X-5.750 Y-3.287 E0.47535
G1 X3.947 Y6.409 E0.47847
G1 X3.919 Y6.457 E0.47848
G1 X-5.777 Y-3.239 E0.48160
G1 X-5.805 Y-3.191 E0.48161
G1 X3.891 Y6.505 E0.48473
G1 X3.864 Y6.553 E0.48474
G1 X-5.833 Y-3.143 E0.48786
G1 X-5.860 Y-3.095 E0.48787
G1 X3.836 Y6.601 E0.49099
G1 X3.808 Y6.650 E0.49100
G1 X-5.888 Y-3.047 E0.49412
G1 X-5.916 Y-2.999 E0.49413
G1 X3.780 Y6.698 E0.49725
G1 X3.753 Y6.746 E0.49726
G1 X-5.944 Y-2.951 E0.50038
G1 X-5.971 Y-2.903 E0.50039
G1 X3.725 Y6.794 E0.50351
G1 X3.697 Y6.842 E0.50352
G1 X-5.999 Y-2.855 E0.50664
G1 X-6.027 Y-2.807 E0.50665
G1 X3.669 Y6.890 E0.50977
G1 X3.642 Y6.938 E0.50978
G1 X-6.055 Y-2.759 E0.51290
G1 X-6.082 Y-2.711 E0.51291
G1 X3.614 Y6.986 E0.51603
G1 X3.586 Y7.034 E0.51604
G1 X-6.110 Y-2.663 E0.51916
G1 X-6.138 Y-2.614 E0.51917
G1 X3.559 Y7.082 E0.52229
G1 X3.531 Y7.130 E0.52230
G1 X-6.166 Y-2.566 E0.52542
G1 X-6.193 Y-2.518 E0.52543
G1 X3.503 Y7.178 E0.52855
G1 X3.475 Y7.226 E0.52856
G1 X-6.221 Y-2.470 E0.53168
G1 X-6.249 Y-2.422 E0.53169
G1 X3.448 Y7.274 E0.53481
G1 X3.420 Y7.322 E0.53482
G1 X-6.276 Y-2.374 E0.53794
G1 X-6.304 Y-2.326 E0.53795
G1 X3.392 Y7.370 E0.54107
G1 X3.364 Y7.418 E0.54108
G1 X-6.332 Y-2.278 E0.54420
G1 X-6.360 Y-2.230 E0.54421
G1 X3.337 Y7.466 E0.54733
G1 X3.309 Y7.514 E0.54734
G1 X-6.387 Y-2.182 E0.55046
G1 X-6.415 Y-2.134 E0.55047
G1 X3.281 Y7.562 E0.55359
G1 X3.253 Y7.610 E0.55360
G1 X-6.443 Y-2.086 E0.55671
G1 X-6.471 Y-2.038 E0.55673
G1 X3.226 Y7.658 E0.55984
G1 X3.198 Y7.706 E0.55986
G1 X-6.498 Y-1.990 E0.56297
G1 X-6.526 Y-1.942 E0.56299
G1 X3.170 Y7.754 E0.56610
G1 X3.143 Y7.802 E0.56612
G1 X-6.554 Y-1.894 E0.56923
G1 X-6.582 Y-1.846 E0.56925
G1 X3.115 Y7.850 E0.57236
G1 X3.087 Y7.898 E0.57238
G1 X-6.609 Y-1.798 E0.57549
G1 X-6.637 Y-1.750 E0.57551
G1 X3.059 Y7.947 E0.57862
G1 X3.032 Y7.995 E0.57864
G1 X-6.665 Y-1.702 E0.58175
G1 X-6.692 Y-1.654 E0.58177
G1 X3.004 Y8.043 E0.58488
G1 X2.976 Y8.091 E0.58490
G1 X-6.720 Y-1.606 E0.58801
G1 X-6.748 Y-1.558 E0.58803
G1 X2.948 Y8.139 E0.59114
G1 X2.921 Y8.187 E0.59116
G1 X-6.776 Y-1.510 E0.59427
G1 X-6.803 Y-1.462 E0.59429
G1 X2.893 Y8.235 E0.59740
G1 X2.865 Y8.283 E0.59742
G1 X-6.831 Y-1.414 E0.60053
G1 X-6.859 Y-1.366 E0.60055
G1 X2.837 Y8.331 E0.60366
G1 X2.810 Y8.379 E0.60367
G1 X-6.887 Y-1.317 E0.60679
G1 X-6.914 Y-1.269 E0.60680
G1 X2.782 Y8.427 E0.60992
G1 X2.754 Y8.475 E0.60993
G1 X-6.942 Y-1.221 E0.61305
G1 X-6.970 Y-1.173 E0.61306
G1 X2.727 Y8.523 E0.61618
G1 X2.699 Y8.571 E0.61619
G1 X-6.998 Y-1.125 E0.61931
G1 X-7.025 Y-1.077 E0.61932
G1 X2.671 Y8.619 E0.62244
G1 X2.643 Y8.667 E0.62245
G1 X-7.053 Y-1.029 E0.62557
G1 X-7.081 Y-0.981 E0.62558
G1 X2.616 Y8.715 E0.62870
G1 X2.588 Y8.763 E0.62871
G1 X-7.108 Y-0.933 E0.63183
G1 X-7.136 Y-0.885 E0.63184
G1 X2.560 Y8.811 E0.63496
G1 X2.532 Y8.859 E0.63497
G1 X-7.164 Y-0.837 E0.63809
G1 X-7.192 Y-0.789 E0.63810
G1 X2.505 Y8.907 E0.64122
G1 X2.477 Y8.955 E0.64123
G1 X-7.219 Y-0.741 E0.64435
G1 X-7.247 Y-0.693 E0.64436
G1 X2.449 Y9.003 E0.64748
G1 X2.424 Y9.047 E0.64749
G1 X2.407 Y9.037 E0.64750
G1 X-7.275 Y-0.645 E0.65061
G1 X-7.303 Y-0.597 E0.65062
G1 X2.228 Y8.933 E0.65368
G1 X2.049 Y8.830 E0.65373
G1 X-7.330 Y-0.549 E0.65675
G1 X-7.358 Y-0.501 E0.65676
G1 X1.869 Y8.726 E0.65973
G1 X1.690 Y8.623 E0.65977
G1 X-7.386 Y-0.453 E0.66269
G1 X-7.414 Y-0.405 E0.66270
G1 X1.511 Y8.519 E0.66557
G1 X1.331 Y8.416 E0.66562
G1 X-7.441 Y-0.357 E0.66844
G1 X-7.469 Y-0.309 E0.66845
G1 X1.152 Y8.312 E0.67122
G1 X0.973 Y8.209 E0.67127
G1 X-7.497 Y-0.261 E0.67399
G1 X-7.524 Y-0.213 E0.67401
G1 X0.794 Y8.105 E0.67668
G1 X0.614 Y8.002 E0.67673
G1 X-7.552 Y-0.165 E0.67935
G1 X-7.580 Y-0.117 E0.67937
G1 X0.435 Y7.898 E0.68194
G1 X0.256 Y7.795 E0.68199
G1 X-7.608 Y-0.069 E0.68452
G1 X-7.635 Y-0.021 E0.68453
G1 X0.077 Y7.691 E0.68701
G1 X-0.103 Y7.588 E0.68706
G1 X-7.663 Y0.028 E0.68949
G1 X-7.691 Y0.076 E0.68950
G1 X-0.282 Y7.484 E0.69188
G1 X-0.461 Y7.381 E0.69193
G1 X-7.719 Y0.124 E0.69426
G1 X-7.746 Y0.172 E0.69427
G1 X-0.641 Y7.277 E0.69656
G1 X-0.820 Y7.174 E0.69661
G1 X-7.774 Y0.220 E0.69884
G1 X-7.802 Y0.268 E0.69885
G1 X-0.999 Y7.070 E0.70104
G1 X-1.178 Y6.967 E0.70109
G1 X-7.830 Y0.316 E0.70323
G1 X-7.857 Y0.364 E0.70324
G1 X-1.358 Y6.863 E0.70533
G1 X-1.537 Y6.760 E0.70538
G1 X-7.885 Y0.412 E0.70742
G1 X-7.913 Y0.460 E0.70743
G1 X-1.716 Y6.656 E0.70942
G1 X-1.895 Y6.553 E0.70947
G1 X-7.940 Y0.508 E0.71141
G1 X-7.968 Y0.556 E0.71142
G1 X-2.075 Y6.449 E0.71332
G1 X-2.254 Y6.346 E0.71337
G1 X-7.996 Y0.604 E0.71521
G1 X-8.024 Y0.652 E0.71522
G1 X-2.433 Y6.242 E0.71702
G1 X-2.613 Y6.139 E0.71707
G1 X-8.051 Y0.700 E0.71882
G1 X-8.079 Y0.748 E0.71883
G1 X-2.792 Y6.035 E0.72053
G1 X-2.971 Y5.932 E0.72058
G1 X-8.107 Y0.796 E0.72223
G1 X-8.135 Y0.844 E0.72224
G1 X-3.150 Y5.828 E0.72384
G1 X-3.330 Y5.725 E0.72389
G1 X-8.162 Y0.892 E0.72544
G1 X-8.190 Y0.940 E0.72546
G1 X-3.509 Y5.621 E0.72696
G1 X-3.688 Y5.518 E0.72701
G1 X-8.218 Y0.988 E0.72846
G1 X-8.246 Y1.036 E0.72848
G1 X-3.868 Y5.414 E0.72988
G1 X-4.047 Y5.311 E0.72993
